svg/system/classify_add_2_fill.svg

<?xml version="1.0" encoding="UTF-8"?>
<svg width="24px" height="24px" viewBox="0 0 24 24" version="1.1" xmlns="http://www.w3.org/2000/svg" xmlns:xlink="http://www.w3.org/1999/xlink">
    <title>classify_add_2_fill</title>
    <g id="Icon" stroke="none" stroke-width="1" fill="none" fill-rule="evenodd">
        <g id="System" transform="translate(-480.000000, -528.000000)" fill-rule="nonzero">
            <g id="classify_add_2_fill" transform="translate(480.000000, 528.000000)">
                <path d="M24,0 L24,24 L0,24 L0,0 L24,0 Z M12.5935,23.2578 L12.5819,23.2595 L12.5109,23.295 L12.4919,23.2987 L12.4767,23.295 L12.4057,23.2595 C12.3958,23.2564 12.387,23.259 12.3821,23.2649 L12.378,23.2758 L12.3609,23.7031 L12.3659,23.7235 L12.3769,23.7357 L12.4805,23.8097 L12.4953,23.8136 L12.5071,23.8097 L12.6107,23.7357 L12.6233,23.7197 L12.6267,23.7031 L12.6096,23.2758 C12.6076,23.2657 12.601,23.2593 12.5935,23.2578 Z M12.8584,23.1453 L12.8445,23.1473 L12.6598,23.2397 L12.6499,23.2499 L12.6472,23.2611 L12.6651,23.6906 L12.6699,23.7034 L12.6784,23.7105 L12.8793,23.8032 C12.8914,23.8069 12.9022,23.803 12.9078,23.7952 L12.9118,23.7812 L12.8777,23.1665 C12.8753,23.1546 12.8674,23.147 12.8584,23.1453 Z M12.143,23.1473 C12.1332,23.1424 12.1222,23.1453 12.1156,23.1526 L12.1099,23.1665 L12.0758,23.7812 C12.0751,23.7927 12.0828,23.8019 12.0926,23.8046 L12.1083,23.8032 L12.3092,23.7105 L12.3186,23.7024 L12.3225,23.6906 L12.3404,23.2611 L12.3372,23.2485 L12.3278,23.2397 L12.143,23.1473 Z" id="MingCute"></path>
                <path d="M11,5 C11,3.89543 10.1046,3 9,3 L5,3 C3.89543,3 3,3.89543 3,5 L3,9 C3,10.1046 3.89543,11 5,11 L9,11 C10.1046,11 11,10.1046 11,9 L11,5 Z M21,5 C21,3.89543 20.1046,3 19,3 L15,3 C13.8954,3 13,3.89543 13,5 L13,9 C13,10.1046 13.8954,11 15,11 L19,11 C20.1046,11 21,10.1046 21,9 L21,5 Z M9,13 C10.1046,13 11,13.8954 11,15 L11,19 C11,20.1046 10.1046,21 9,21 L5,21 C3.89543,21 3,20.1046 3,19 L3,15 C3,13.8954 3.89543,13 5,13 L9,13 Z M13,17 C13,16.4477 13.4477,16 14,16 L16,16 L16,14 C16,13.4477 16.4477,13 17,13 C17.5523,13 18,13.4477 18,14 L18,16 L20,16 C20.5523,16 21,16.4477 21,17 C21,17.5523 20.5523,18 20,18 L18,18 L18,20 C18,20.5523 17.5523,21 17,21 C16.4477,21 16,20.5523 16,20 L16,18 L14,18 C13.4477,18 13,17.5523 13,17 Z" id="形状" fill="#09244B"></path>
            </g>
        </g>
    </g>
</svg>

<svg xmlns="http://www.w3.org/2000/svg" width="24" height="24"><g fill="none" fill-rule="nonzero"><path d="M24 0v24H0V0h24ZM12.594 23.258l-.012.002-.071.035-.02.004-.014-.004-.071-.036c-.01-.003-.019 0-.024.006l-.004.01-.017.428.005.02.01.013.104.074.015.004.012-.004.104-.074.012-.016.004-.017-.017-.427c-.002-.01-.009-.017-.016-.018Zm.264-.113-.014.002-.184.093-.01.01-.003.011.018.43.005.012.008.008.201.092c.012.004.023 0 .029-.008l.004-.014-.034-.614c-.003-.012-.01-.02-.02-.022Zm-.715.002a.023.023 0 0 0-.027.006l-.006.014-.034.614c0 .012.007.02.017.024l.015-.002.201-.093.01-.008.003-.011.018-.43-.003-.012-.01-.01-.184-.092Z"/><path fill="#09244B" d="M11 5a2 2 0 0 0-2-2H5a2 2 0 0 0-2 2v4a2 2 0 0 0 2 2h4a2 2 0 0 0 2-2V5Zm10 0a2 2 0 0 0-2-2h-4a2 2 0 0 0-2 2v4a2 2 0 0 0 2 2h4a2 2 0 0 0 2-2V5ZM9 13a2 2 0 0 1 2 2v4a2 2 0 0 1-2 2H5a2 2 0 0 1-2-2v-4a2 2 0 0 1 2-2h4Zm4 4a1 1 0 0 1 1-1h2v-2a1 1 0 1 1 2 0v2h2a1 1 0 1 1 0 2h-2v2a1 1 0 1 1-2 0v-2h-2a1 1 0 0 1-1-1Z"/></g></svg>
